src/assets/icons/quotes.svg

<svg viewBox="0 0 30 20" fill="none" xmlns="http://www.w3.org/2000/svg"><path d="M7.992 9.112c1.632 0 2.928.48 3.888 1.44.992.928 1.488 2.192 1.488 3.792 0 1.568-.528 2.88-1.584 3.936-1.056 1.024-2.576 1.536-4.56 1.536-2.048 0-3.616-.688-4.704-2.064C1.432 16.344.888 14.568.888 12.424c0-2.048.48-3.872 1.44-5.472a13.843 13.843 0 0 1 3.696-4.128C7.56 1.672 9.128.792 10.728.184l1.056 2.304a12.52 12.52 0 0 0-3.312 1.824 11.04 11.04 0 0 0-2.544 2.784c-.64 1.024-.976 2.08-1.008 3.168.128-.256.464-.512 1.008-.768.576-.256 1.264-.384 2.064-.384zm15.696 0c1.632 0 2.928.48 3.888 1.44.992.928 1.488 2.192 1.488 3.792 0 1.568-.528 2.88-1.584 3.936-1.056 1.024-2.576 1.536-4.56 1.536-2.048 0-3.616-.688-4.704-2.064-1.088-1.408-1.632-3.184-1.632-5.328 0-2.048.48-3.872 1.44-5.472a13.843 13.843 0 0 1 3.696-4.128c1.536-1.152 3.104-2.032 4.704-2.64l1.056 2.304a12.52 12.52 0 0 0-3.312 1.824 11.04 11.04 0 0 0-2.544 2.784c-.64 1.024-.976 2.08-1.008 3.168.128-.256.464-.512 1.008-.768.576-.256 1.264-.384 2.064-.384z" fill="#fff"/></svg>

<svg width="100%" height="100%" viewBox="0 0 30 20" fill="none" xmlns="http://www.w3.org/2000/svg">
    <path d="M7.992 9.112C9.624 9.112 10.92 9.592 11.88 10.552C12.872 11.48 13.368 12.744 13.368 14.344C13.368 15.912 12.84 17.224 11.784 18.28C10.728 19.304 9.208 19.816 7.224 19.816C5.176 19.816 3.608 19.128 2.52 17.752C1.432 16.344 0.888 14.568 0.888 12.424C0.888 10.376 1.368 8.552 2.328 6.952C3.288 5.32 4.52 3.944 6.024 2.824C7.56 1.672 9.128 0.791998 10.728 0.183996L11.784 2.488C10.632 2.904 9.528 3.512 8.472 4.31199C7.448 5.112 6.6 6.04 5.928 7.096C5.288 8.12 4.952 9.176 4.92 10.264C5.048 10.008 5.384 9.752 5.928 9.496C6.504 9.24 7.192 9.112 7.992 9.112ZM23.688 9.112C25.32 9.112 26.616 9.592 27.576 10.552C28.568 11.48 29.064 12.744 29.064 14.344C29.064 15.912 28.536 17.224 27.48 18.28C26.424 19.304 24.904 19.816 22.92 19.816C20.872 19.816 19.304 19.128 18.216 17.752C17.128 16.344 16.584 14.568 16.584 12.424C16.584 10.376 17.064 8.552 18.024 6.952C18.984 5.32 20.216 3.944 21.72 2.824C23.256 1.672 24.824 0.791998 26.424 0.183996L27.48 2.488C26.328 2.904 25.224 3.512 24.168 4.31199C23.144 5.112 22.296 6.04 21.624 7.096C20.984 8.12 20.648 9.176 20.616 10.264C20.744 10.008 21.08 9.752 21.624 9.496C22.2 9.24 22.888 9.112 23.688 9.112Z" fill="white"/>
</svg>
